public/wave.svg

<?xml version="1.0" encoding="UTF-8"?>
<svg id="Layer_1" data-name="Layer 1" xmlns="http://www.w3.org/2000/svg" version="1.1" viewBox="0 0 1440 320">
  <defs>
    <style>
      .cls-1 {
        fill: #ee1b24;
        stroke-width: 0px;
      }
    </style>
  </defs>
  <path class="cls-1" d="M0,64l11.4-5.3c11.5-5.7,34.6-15.7,57.6,16,22.4,32.3,45,106.3,68,122.6,23,15.7,46-26.3,69-48,22.6-21.3,45-21.3,68,5.4,23.1,26.3,46,80.3,69,58.6,22.7-21.3,46-117.3,68-154.6,23.3-37.7,46-15.7,69,21.3,22.9,37,46,91,69,128,22.4,37,45,59,68,42.7,23-15.7,46-69.7,69-69.4,22.6-.3,45,53.7,68,58.7,23.1,5,46-37,69-69.3,22.7-31.7,46-53.7,68-48,23.3,5.3,46,37.3,69,37.3s46-32,69-21.3c22.4,10.3,45,64.3,68,53.3s46-85,69-122.7c22.6-37.3,45-37.3,68-5.3,23.1,32,46,96,69,133.3,22.7,37.7,46,47.7,68,21.4,23.3-26.7,46-90.7,58-122.7l11-32v256H0V64Z"/>
</svg>

<svg xmlns="http://www.w3.org/2000/svg" viewBox="0 0 1440 320">
    <path fill="#E2DC1E" fillOpacity="1" shapeRendering="auto" d="M0,64L11.4,58.7C22.9,53,46,43,69,74.7C91.4,107,114,181,137,197.3C160,213,183,171,206,149.3C228.6,128,251,128,274,154.7C297.1,181,320,235,343,213.3C365.7,192,389,96,411,58.7C434.3,21,457,43,480,80C502.9,117,526,171,549,208C571.4,245,594,267,617,250.7C640,235,663,181,686,181.3C708.6,181,731,235,754,240C777.1,245,800,203,823,170.7C845.7,139,869,117,891,122.7C914.3,128,937,160,960,160C982.9,160,1006,128,1029,138.7C1051.4,149,1074,203,1097,192C1120,181,1143,107,1166,69.3C1188.6,32,1211,32,1234,64C1257.1,96,1280,160,1303,197.3C1325.7,235,1349,245,1371,218.7C1394.3,192,1417,128,1429,96L1440,64L1440,320L1428.6,320C1417.1,320,1394,320,1371,320C1348.6,320,1326,320,1303,320C1280,320,1257,320,1234,320C1211.4,320,1189,320,1166,320C1142.9,320,1120,320,1097,320C1074.3,320,1051,320,1029,320C1005.7,320,983,320,960,320C937.1,320,914,320,891,320C868.6,320,846,320,823,320C800,320,777,320,754,320C731.4,320,709,320,686,320C662.9,320,640,320,617,320C594.3,320,571,320,549,320C525.7,320,503,320,480,320C457.1,320,434,320,411,320C388.6,320,366,320,343,320C320,320,297,320,274,320C251.4,320,229,320,206,320C182.9,320,160,320,137,320C114.3,320,91,320,69,320C45.7,320,23,320,11,320L0,320Z"/>
</svg>
